X: 6034
T: Cape Breton
R: jig
M: 6/8
K: Gmajor
B2G GFG|Bcd dBG|EAA A2G|EAA ABc|
dBG ~G3|Bcd dBG|EcB AGF|G3 G2c||
dBG ~G3|Bcd dBG|EAA A2G|EAA ABc|
dBG ~G3|Bcd dBG|EcB AGF|G3 G2f||
|:g2e ede|b2e efg|fdd add|fdd def|
g2e ede|b2e efg|afd afd|1 e2 e e2f:|2 e3 edc||

